X:198
T:Anglais efter Per Nilsson Dahlberg
T:(SvL Skåne nr. 198)
S:efter Per Nilsson Dahlberg
S:Svenska Låtar Skåne nr 198
B:Svenska Låtar Skåne
R:Anglais
Z:Patrik Månsson, 2009-01-03
O:Nymö, Skåne
M:2/4
L:1/16
K:D
|: f2fe d2A2 | B2BA G2E2 | g2(gf) e2b2 | (ag)ec d4 :|
|: D2FA d2f2 | (ag)eg b2a2 | (ag)ge (gf)fd | (fe)ec d4 :|

